picto/tracks-89-de-small.svg

<svg class="color-immutable" width="24" height="24" viewBox="0 0 24 24" fill="none" xmlns="http://www.w3.org/2000/svg"><path d="M0 22.5V1.5C0 0.675 0.675 0 1.5 0H22.5C23.325 0 24 0.675 24 1.5V22.5C24 23.325 23.325 24 22.5 24H1.5C0.675 24 0 23.325 0 22.5Z" fill="#2D327D"/><path d="M5.12899 14.965C4.60599 14.786 4.20499 14.491 3.92499 14.081C3.64599 13.671 3.50599 13.174 3.50599 12.589C3.50599 11.615 3.90599 10.838 4.70599 10.259C5.41399 9.746 6.25399 9.49 7.22799 9.49C8.33499 9.49 9.23999 9.795 9.94299 10.405C10.609 10.979 10.943 11.689 10.943 12.535C10.943 13.125 10.802 13.63 10.52 14.05C10.238 14.47 9.83799 14.776 9.31999 14.965C9.72499 15.083 10.056 15.234 10.312 15.419C11.025 15.937 11.381 16.693 11.381 17.688C11.381 18.831 10.943 19.741 10.066 20.418C9.32799 20.987 8.37899 21.272 7.22099 21.272C5.96499 21.272 4.96499 20.959 4.22199 20.334C3.44799 19.683 3.06099 18.829 3.06099 17.773C3.06099 16.784 3.40399 16.017 4.09199 15.474C4.40299 15.232 4.74899 15.062 5.12899 14.965ZM7.18199 15.811C6.62799 15.811 6.17599 15.982 5.82499 16.322C5.47399 16.663 5.29799 17.1 5.29799 17.633C5.29799 18.182 5.47599 18.628 5.83199 18.971C6.18799 19.315 6.65099 19.486 7.21999 19.486C7.86599 19.486 8.34999 19.296 8.67299 18.917C8.98599 18.553 9.14199 18.133 9.14199 17.656C9.14199 17.113 8.96199 16.667 8.60399 16.318C8.26099 15.98 7.78699 15.811 7.18199 15.811ZM7.19699 11.235C6.70499 11.235 6.30699 11.372 6.00499 11.646C5.70199 11.92 5.55099 12.28 5.55099 12.727C5.55099 13.194 5.70299 13.567 6.00899 13.846C6.31399 14.125 6.72299 14.265 7.23599 14.265C7.74899 14.265 8.15399 14.127 8.45099 13.85C8.74799 13.573 8.89699 13.196 8.89699 12.72C8.89699 12.254 8.74699 11.889 8.44699 11.628C8.14699 11.367 7.73099 11.235 7.19699 11.235Z" fill="white"/><path d="M12.914 18.179H15.037C15.211 19.051 15.716 19.486 16.552 19.486C17.024 19.486 17.407 19.326 17.702 19.005C17.997 18.685 18.224 18.186 18.383 17.509C18.485 17.078 18.56 16.589 18.606 16.04C18.262 16.522 17.91 16.864 17.549 17.067C17.188 17.27 16.748 17.371 16.23 17.371C15.404 17.371 14.687 17.13 14.077 16.648C13.651 16.31 13.319 15.871 13.081 15.333C12.843 14.795 12.723 14.21 12.723 13.58C12.723 12.314 13.156 11.288 14.023 10.504C14.766 9.827 15.658 9.489 16.699 9.489C17.34 9.489 17.932 9.633 18.475 9.92C19.018 10.207 19.475 10.615 19.844 11.143C20.495 12.081 20.821 13.399 20.821 15.096C20.821 16.665 20.534 18.003 19.96 19.11C19.211 20.551 18.078 21.271 16.561 21.271C15.551 21.271 14.716 20.992 14.058 20.433C13.398 19.874 13.017 19.123 12.914 18.179ZM16.652 11.389C16.17 11.389 15.762 11.586 15.429 11.981C15.096 12.381 14.929 12.888 14.929 13.504C14.929 14.001 15.049 14.442 15.29 14.827C15.618 15.355 16.079 15.619 16.674 15.619C17.212 15.619 17.643 15.404 17.966 14.973C18.268 14.568 18.42 14.086 18.42 13.527C18.42 12.937 18.264 12.438 17.951 12.027C17.623 11.602 17.19 11.389 16.652 11.389Z" fill="white"/><path d="M5.09599 4.037V5.249H4.78199L4.73299 4.992C4.56599 5.199 4.34199 5.303 4.05999 5.303C3.71599 5.303 3.44499 5.176 3.24599 4.922C3.08199 4.709 2.99899 4.447 2.99899 4.135C2.99899 3.781 3.10699 3.492 3.32199 3.266C3.52399 3.053 3.78499 2.946 4.10499 2.946C4.39999 2.946 4.64099 3.041 4.82599 3.232C4.96499 3.376 5.04399 3.545 5.06499 3.74H4.58899C4.56499 3.619 4.50999 3.524 4.42399 3.457C4.33899 3.389 4.22999 3.355 4.09899 3.355C3.89999 3.355 3.74599 3.432 3.63799 3.586C3.54199 3.72 3.49399 3.902 3.49399 4.13C3.49399 4.354 3.53899 4.531 3.62799 4.662C3.73799 4.824 3.89999 4.904 4.11399 4.904C4.26899 4.904 4.39599 4.857 4.49499 4.764C4.59399 4.671 4.64599 4.548 4.65099 4.396H4.15099V4.036H5.09599V4.037Z" fill="white"/><path d="M5.90299 3V5.249H5.45699V3H5.90299Z" fill="white"/><path d="M7.77499 4.726C7.75099 4.82 7.70899 4.909 7.64699 4.992C7.49999 5.194 7.28699 5.295 7.00999 5.295C6.75999 5.295 6.55899 5.216 6.40899 5.058C6.33499 4.981 6.27899 4.888 6.23999 4.78C6.19799 4.664 6.17699 4.543 6.17699 4.417C6.17699 4.173 6.24699 3.968 6.38799 3.802C6.54499 3.616 6.74799 3.524 6.99699 3.524C7.19799 3.524 7.36899 3.586 7.51099 3.71C7.61299 3.799 7.68599 3.909 7.73199 4.04C7.77799 4.171 7.80099 4.335 7.80099 4.533H6.63099C6.63499 4.615 6.64799 4.683 6.66899 4.738C6.72899 4.885 6.84399 4.958 7.01399 4.958C7.09699 4.958 7.16499 4.94 7.21699 4.903C7.26899 4.867 7.31199 4.808 7.34599 4.727H7.77499V4.726ZM7.34599 4.232C7.33799 4.151 7.31899 4.084 7.28999 4.031C7.26199 3.978 7.22099 3.937 7.16799 3.906C7.11499 3.875 7.05799 3.86 6.99499 3.86C6.89599 3.86 6.81399 3.893 6.74899 3.96C6.68399 4.026 6.64599 4.117 6.63399 4.232H7.34599Z" fill="white"/><path d="M8.52399 3V3.401H8.07799V3H8.52399ZM8.52399 3.572V5.249H8.07799V3.572H8.52399Z" fill="white"/><path d="M10.248 4.06H9.82999C9.82199 4.002 9.80599 3.959 9.78199 3.929C9.73599 3.87 9.64999 3.84 9.52499 3.84C9.44599 3.84 9.38499 3.854 9.34199 3.883C9.29899 3.912 9.27799 3.952 9.27799 4.004C9.27799 4.059 9.30199 4.1 9.34999 4.126C9.39799 4.152 9.50699 4.182 9.67699 4.217C9.89299 4.261 10.049 4.316 10.145 4.382C10.258 4.459 10.314 4.576 10.314 4.733C10.314 4.912 10.244 5.051 10.105 5.15C9.96599 5.246 9.78399 5.295 9.55699 5.295C9.27599 5.295 9.06999 5.226 8.93899 5.087C8.85099 4.993 8.80199 4.864 8.79199 4.701H9.21999C9.22799 4.777 9.24799 4.834 9.27799 4.873C9.33499 4.943 9.42999 4.978 9.56299 4.978C9.65499 4.978 9.72899 4.959 9.78299 4.922C9.83599 4.884 9.86399 4.834 9.86399 4.77C9.86399 4.713 9.84099 4.67 9.79399 4.642C9.74699 4.614 9.64899 4.582 9.49799 4.547C9.35199 4.513 9.24899 4.487 9.18899 4.468C9.12799 4.449 9.07399 4.426 9.02499 4.4C8.96299 4.364 8.91399 4.314 8.87899 4.249C8.84399 4.184 8.82699 4.113 8.82699 4.034C8.82699 3.86 8.89899 3.727 9.04399 3.636C9.16199 3.56 9.32599 3.523 9.53599 3.523C9.81399 3.523 10.013 3.594 10.134 3.735C10.2 3.812 10.238 3.92 10.248 4.06Z" fill="white"/></svg>

<svg class="color-immutable" width="24" height="24" viewBox="0 0 24 24" fill="none" xmlns="http://www.w3.org/2000/svg"><g clip-path="url(#a)"><path d="M0 22.5v-21C0 .675.675 0 1.5 0h21c.825 0 1.5.675 1.5 1.5v21c0 .825-.675 1.5-1.5 1.5h-21C.675 24 0 23.325 0 22.5Z" fill="#2D327D"/><path d="M5.129 14.965c-.523-.179-.924-.474-1.204-.884-.279-.41-.419-.907-.419-1.492 0-.974.4-1.751 1.2-2.33.708-.513 1.548-.769 2.522-.769 1.107 0 2.012.305 2.715.915.666.574 1 1.284 1 2.13 0 .59-.141 1.095-.423 1.515-.282.42-.682.726-1.2.915.405.118.736.269.992.454.713.518 1.069 1.274 1.069 2.269 0 1.143-.438 2.053-1.315 2.73-.738.569-1.687.854-2.845.854-1.256 0-2.256-.313-2.999-.938-.774-.651-1.161-1.505-1.161-2.561 0-.989.343-1.756 1.031-2.299a2.8 2.8 0 0 1 1.037-.509Zm2.053.846c-.554 0-1.006.171-1.357.511-.351.341-.527.778-.527 1.311 0 .549.178.995.534 1.338.356.344.819.515 1.388.515.646 0 1.13-.19 1.453-.569.313-.364.469-.784.469-1.261 0-.543-.18-.989-.538-1.338-.343-.338-.817-.507-1.422-.507Zm.015-4.576c-.492 0-.89.137-1.192.411-.303.274-.454.634-.454 1.081 0 .467.152.84.458 1.119.305.279.714.419 1.227.419.513 0 .918-.138 1.215-.415.297-.277.446-.654.446-1.13 0-.466-.15-.831-.45-1.092-.3-.261-.716-.393-1.25-.393ZM12.914 18.179h2.123c.174.872.679 1.307 1.515 1.307.472 0 .855-.16 1.15-.481.295-.32.522-.819.681-1.496.102-.431.177-.92.223-1.469-.344.482-.696.824-1.057 1.027-.361.203-.801.304-1.319.304-.826 0-1.543-.241-2.153-.723a3.401 3.401 0 0 1-.996-1.315 4.287 4.287 0 0 1-.358-1.753c0-1.266.433-2.292 1.3-3.076.743-.677 1.635-1.015 2.676-1.015.641 0 1.233.144 1.776.431.543.287 1 .695 1.369 1.223.651.938.977 2.256.977 3.953 0 1.569-.287 2.907-.861 4.014-.749 1.441-1.882 2.161-3.399 2.161-1.01 0-1.845-.279-2.503-.838-.66-.559-1.041-1.31-1.144-2.254Zm3.738-6.79c-.482 0-.89.197-1.223.592-.333.4-.5.907-.5 1.523 0 .497.12.938.361 1.323.328.528.789.792 1.384.792.538 0 .969-.215 1.292-.646.302-.405.454-.887.454-1.446 0-.59-.156-1.089-.469-1.5a1.562 1.562 0 0 0-1.299-.638ZM5.096 4.037v1.212h-.314l-.049-.257a.82.82 0 0 1-.673.311c-.344 0-.615-.127-.814-.381a1.251 1.251 0 0 1-.247-.787c0-.354.108-.643.323-.869.202-.213.463-.32.783-.32.295 0 .536.095.721.286a.842.842 0 0 1 .239.508h-.476a.458.458 0 0 0-.165-.283.505.505 0 0 0-.325-.102.53.53 0 0 0-.461.231c-.096.134-.144.316-.144.544 0 .224.045.401.134.532.11.162.272.242.486.242a.534.534 0 0 0 .381-.14.506.506 0 0 0 .156-.368h-.5v-.36h.945v.001ZM5.903 3v2.249h-.446V3h.446ZM7.775 4.726a.752.752 0 0 1-.128.266c-.147.202-.36.303-.637.303-.25 0-.451-.079-.601-.237a.775.775 0 0 1-.169-.278 1.058 1.058 0 0 1-.063-.363c0-.244.07-.449.211-.615a.76.76 0 0 1 .609-.278.754.754 0 0 1 .735.516c.046.131.069.295.069.493h-1.17c.004.082.017.15.038.205.06.147.175.22.345.22a.343.343 0 0 0 .203-.055.39.39 0 0 0 .129-.176h.429v-.001Zm-.429-.494a.525.525 0 0 0-.056-.201.334.334 0 0 0-.295-.171.328.328 0 0 0-.246.1.44.44 0 0 0-.115.272h.712ZM8.524 3v.401h-.446V3h.446Zm0 .572v1.677h-.446V3.572h.446ZM10.248 4.06H9.83a.265.265 0 0 0-.048-.131c-.046-.059-.132-.089-.257-.089a.326.326 0 0 0-.183.043.137.137 0 0 0-.064.121.13.13 0 0 0 .072.122c.048.026.157.056.327.091.216.044.372.099.468.165.113.077.169.194.169.351 0 .179-.07.318-.209.417-.139.096-.321.145-.548.145-.281 0-.487-.069-.618-.208a.6.6 0 0 1-.147-.386h.428a.338.338 0 0 0 .058.172c.057.07.152.105.285.105a.385.385 0 0 0 .22-.056.179.179 0 0 0 .081-.152c0-.057-.023-.1-.07-.128a1.211 1.211 0 0 0-.296-.095 4.8 4.8 0 0 1-.309-.079.95.95 0 0 1-.164-.068.379.379 0 0 1-.146-.151.444.444 0 0 1-.052-.215c0-.174.072-.307.217-.398.118-.076.282-.113.492-.113.278 0 .477.071.598.212a.546.546 0 0 1 .114.325Z" fill="#fff"/></g><defs><clipPath id="a"><path fill="#fff" d="M0 0h24v24H0z"/></clipPath></defs></svg>
